X: 1767
T: Sault's Favorite   #2
R: hornpipe
%S: s:3 b:13(5+4+4)
O: Gillan
B: O'Neill's 1850 #1767
Z: Bob Safranek, rjs@gsp.org
M: C|
L: 1/8
K: F
C2 \
|: F>EF>A c>=Bc>d | f>ga>f c2c>B | ((3ABc) f>d c>AG>[1,3F | E>FG>A G>EC>E :|2,4 E/ | F2A2 F2 :|
|: c2 \
| ((3fga) c>a f>ac>a | ((3gab) d>b g>bd>b | ((3fga) c>a f>ac>a | g>fe>d c2d>e ||
| f>ca>c f>ca>c | g>cb>c g>cb>c | c'2b>a g>fe>g | f2a2 f2 :|
